X: 11
T: The Girl I Left Behind Me
R: polka
M: 2/4
L: 1/8
K: Gmaj
|: g/f/ |ec B>A | BG E>F | G>G G/A/B/c/ | d2 dg/f/ |
ec B>A | BG E>G | FA DE/F/ | G>A G :|
|: G/A/ |Bd e>f | g>d BG/A/ | Bd ef | g2 fg/f/ |
ec BA | B>G EF/G/ | FA DE/F/ | G>A G :|


Tune 5418	Setting 24486

